packages/kaspersky-hexa-ui-icons/src/iconsSVGs/64x42/FlagKr.svg

<svg xmlns="http://www.w3.org/2000/svg" width="64" height="42" fill="none" viewBox="0 0 64 42"><g clip-path="url(#a)"><rect width="64" height="42" fill="#fff" rx="5"/><g clip-path="url(#b)"><circle cx="32" cy="21" r="10" fill="#e01b41"/><mask id="c" width="20" height="20" x="22" y="11" maskUnits="userSpaceOnUse" style="mask-type:luminance"><circle cx="32" cy="21" r="10" fill="#fff"/></mask><g mask="url(#c)"><path fill="#0e4b9c" fill-rule="evenodd" d="M22.1999 21.4001c2.8 2.625 7 4.2 9.8 0s8.4-4.2 9.8 0 0 10.4 0 10.4h-19.6s-2.8-13.025 0-10.4" clip-rule="evenodd"/></g></g><path fill="#262626" fill-rule="evenodd" d="M46.2677 7.9127a.7.7 0 0 0-.2562.9562l3.5 6.0622a.7.7 0 0 0 .9562.2562l1.2125-.7a.7.7 0 0 0 .2562-.9562l-3.5-6.0622a.7.7 0 0 0-.9562-.2562zm-3.6373 2.1a.7.7 0 0 0-.2562.9562l3.5 6.0622a.7.7 0 0 0 .9562.2562l1.2124-.7a.7.7 0 0 0 .2563-.9562l-3.5-6.0622a.7.7 0 0 0-.9563-.2562zM12.0634 28.469a.7.7 0 0 1 .2562-.9562l1.2124-.7a.7.7 0 0 1 .9563.2562l3.5 6.0622a.7.7 0 0 1-.2563.9562l-1.2124.7a.7.7 0 0 1-.9562-.2562zm3.8935-3.0562a.7.7 0 0 0-.2562.9562l3.5 6.0622a.7.7 0 0 0 .9562.2562l1.2125-.7a.7.7 0 0 0 .2562-.9562l-3.5-6.0622a.7.7 0 0 0-.9562-.2562zm29.9173-.4437a.7.7 0 0 1 .9562-.2563l1.2124.7a.7.7 0 0 1 .2563.9563l-3.5 6.0621a.7.7 0 0 1-.9563.2563l-1.2124-.7a.7.7 0 0 1-.2562-.9563zm4.5935 1.8437a.7.7 0 0 0-.9562.2563l-3.5 6.0621a.7.7 0 0 0 .2562.9563l1.2125.7a.7.7 0 0 0 .9562-.2563l3.5-6.0621a.7.7 0 0 0-.2562-.9563zM15.5634 7.469a.7.7 0 0 1 .9562-.2562l1.2124.7a.7.7 0 0 1 .2563.9562l-3.5 6.0622a.7.7 0 0 1-.9563.2562l-1.2124-.7a.7.7 0 0 1-.2562-.9562zm4.5935 1.8438a.7.7 0 0 0-.9562.2562l-3.5 6.0622a.7.7 0 0 0 .2562.9562l1.2125.7a.7.7 0 0 0 .9562-.2562l3.5-6.0622a.7.7 0 0 0-.2562-.9562z" clip-rule="evenodd"/><rect width="63" height="41" y="1" stroke="#f5f5f5" rx="5"/></g><defs><clipPath id="a"><rect width="64" height="42" fill="#fff" rx="5"/></clipPath><clipPath id="b"><path fill="#fff" d="M22.2001 11.2001h21v21h-21z"/></clipPath></defs></svg>

<svg width="64" height="42" viewBox="0 0 64 42" fill="none" xmlns="http://www.w3.org/2000/svg">
<g clip-path="url(#clip0_37941_2278)">
<rect width="64" height="42" rx="5" fill="white"/>
<g clip-path="url(#clip1_37941_2278)">
<circle cx="32.0001" cy="21.0001" r="9.8" fill="#E01B41"/>
<mask id="mask0_37941_2278" style="mask-type:luminance" maskUnits="userSpaceOnUse" x="22" y="11" width="20" height="20">
<circle cx="32.0001" cy="21.0001" r="9.8" fill="white"/>
</mask>
<g mask="url(#mask0_37941_2278)">
<path fill-rule="evenodd" clip-rule="evenodd" d="M22.1999 21.4001C24.9999 24.0251 29.1999 25.6001 31.9999 21.4001C34.7999 17.2001 40.3999 17.2001 41.7999 21.4001C43.1999 25.6001 41.7999 31.8001 41.7999 31.8001H22.1999C22.1999 31.8001 19.3999 18.7751 22.1999 21.4001Z" fill="#0E4B9C"/>
</g>
</g>
<path opacity="0.75" fill-rule="evenodd" clip-rule="evenodd" d="M46.2677 7.91267C45.9329 8.10597 45.8182 8.53409 46.0115 8.86889L49.5115 14.9311C49.7048 15.2659 50.1329 15.3806 50.4677 15.1873L51.6802 14.4873C52.015 14.294 52.1297 13.8659 51.9364 13.5311L48.4364 7.46889C48.2431 7.13409 47.815 7.01937 47.4802 7.21267L46.2677 7.91267ZM42.6304 10.0127C42.2956 10.206 42.1809 10.6341 42.3742 10.9689L45.8742 17.0311C46.0675 17.3659 46.4956 17.4806 46.8304 17.2873L48.0428 16.5873C48.3776 16.394 48.4924 15.9659 48.2991 15.6311L44.7991 9.56889C44.6058 9.23409 44.1776 9.11937 43.8428 9.31267L42.6304 10.0127ZM12.0634 28.469C11.8701 28.1342 11.9848 27.7061 12.3196 27.5128L13.532 26.8128C13.8668 26.6195 14.295 26.7342 14.4883 27.069L17.9883 33.1312C18.1816 33.466 18.0668 33.8941 17.732 34.0874L16.5196 34.7874C16.1848 34.9807 15.7567 34.866 15.5634 34.5312L12.0634 28.469ZM15.9569 25.4128C15.6221 25.6061 15.5074 26.0342 15.7007 26.369L19.2007 32.4312C19.394 32.766 19.8221 32.8807 20.1569 32.6874L21.3694 31.9874C21.7042 31.7941 21.8189 31.366 21.6256 31.0312L18.1256 24.969C17.9323 24.6342 17.5042 24.5195 17.1694 24.7128L15.9569 25.4128ZM45.8742 24.9691C46.0675 24.6343 46.4956 24.5195 46.8304 24.7128L48.0428 25.4128C48.3776 25.6061 48.4924 26.0343 48.2991 26.3691L44.7991 32.4312C44.6058 32.766 44.1776 32.8808 43.8428 32.6875L42.6304 31.9875C42.2956 31.7942 42.1809 31.366 42.3742 31.0312L45.8742 24.9691ZM50.4677 26.8128C50.1329 26.6195 49.7048 26.7343 49.5115 27.0691L46.0115 33.1312C45.8182 33.466 45.9329 33.8942 46.2677 34.0875L47.4802 34.7875C47.815 34.9808 48.2431 34.866 48.4364 34.5312L51.9364 28.4691C52.1297 28.1343 52.015 27.7061 51.6802 27.5128L50.4677 26.8128ZM15.5634 7.46898C15.7567 7.13417 16.1848 7.01946 16.5196 7.21276L17.732 7.91276C18.0668 8.10606 18.1816 8.53417 17.9883 8.86898L14.4883 14.9312C14.295 15.266 13.8668 15.3807 13.532 15.1874L12.3196 14.4874C11.9848 14.2941 11.8701 13.866 12.0634 13.5312L15.5634 7.46898ZM20.1569 9.31276C19.8221 9.11946 19.394 9.23417 19.2007 9.56898L15.7007 15.6312C15.5074 15.966 15.6221 16.3941 15.9569 16.5874L17.1694 17.2874C17.5042 17.4807 17.9323 17.366 18.1256 17.0312L21.6256 10.969C21.8189 10.6342 21.7042 10.2061 21.3694 10.0128L20.1569 9.31276Z" fill="#262626"/>
<rect x="0.499878" y="0.5" width="63" height="41" rx="4.5" stroke="#F5F5F5"/>
</g>
<defs>
<clipPath id="clip0_37941_2278">
<rect width="64" height="42" rx="5" fill="white"/>
</clipPath>
<clipPath id="clip1_37941_2278">
<rect width="21" height="21" fill="white" transform="translate(22.2001 11.2001)"/>
</clipPath>
</defs>
</svg>
